X:7087
T:Highlandman That Kissed His Granny, The
R:reel
H:Belongs to the "Highlander Kissed His Granny" family.
H:Other related tunes are "John Stenson's #1" #392
H:"The Jolly Seven" #559, "The Gravel Walks" #60,
H:"The Highlandman" highland#10
Z:id:hn-reel-567
M:C|
K:Ador
cAAG ~A3B|cAAc dB~B2|cA~A2 ABcd|egfe dB~B2:|
|:cggf gage|cege dB~B2|cggf gafg|afge dB~B2:|
